synths/sZEC.svg

<svg width="42" height="42" viewBox="0 0 42 42" fill="none" xmlns="http://www.w3.org/2000/svg">
<g clip-path="url(#clip0_7277_57862)">
<mask id="mask0_7277_57862" style="mask-type:alpha" maskUnits="userSpaceOnUse" x="0" y="0" width="42" height="42">
<circle cx="21" cy="21" r="21" transform="matrix(-1 0 0 1 42 0)" fill="url(#paint0_linear_7277_57862)"/>
</mask>
<g mask="url(#mask0_7277_57862)">
<circle cx="21" cy="21" r="21" transform="matrix(-1 0 0 1 42 0)" fill="#34EDB3"/>
<circle cx="18.2" cy="18.2" r="18.2" transform="matrix(-1 0 0 1 39.2 2.80005)" fill="white"/>
</g>
<circle cx="16.1" cy="16.1" r="16.1" transform="matrix(-1 0 0 1 37.1 4.90002)" fill="#0B0B22"/>
<g clip-path="url(#clip1_7277_57862)">
<ellipse cx="21.1323" cy="21.1" rx="16.0676" ry="16.1" fill="#06061B"/>
<path d="M21.0002 5.02441C12.1767 5.02441 5.00012 12.2248 5.00012 21.0776C5.00012 29.9304 12.1767 37.1308 21.0002 37.1308C29.8236 37.1308 37.0002 29.9304 37.0002 21.0776C37.0002 12.2248 29.8236 5.02441 21.0002 5.02441ZM21.0002 34.4814C13.6319 34.4814 7.64077 28.4703 7.64077 21.0776C7.64077 13.6849 13.6319 7.67383 21.0002 7.67383C28.3684 7.67383 34.3596 13.6849 34.3596 21.0776C34.3596 28.4703 28.3684 34.4814 21.0002 34.4814V34.4814Z" fill="#231F20"/>
<path d="M21.0003 33.7265C27.9629 33.7265 33.6072 28.0634 33.6072 21.0777C33.6072 14.0919 27.9629 8.42883 21.0003 8.42883C14.0376 8.42883 8.39331 14.0919 8.39331 21.0777C8.39331 28.0634 14.0376 33.7265 21.0003 33.7265Z" fill="#F4B728"/>
<path d="M15.2927 26.0701V28.5201H19.6583V31.2051H22.3415V28.5201H26.7071V25.2796H19.9352L26.7071 16.0636V13.6136H22.3415V10.9357H19.6583V13.6136H15.2927V16.8612H22.0647L15.2927 26.0701Z" fill="#231F20"/>
</g>
</g>
<defs>
<linearGradient id="paint0_linear_7277_57862" x1="21" y1="0" x2="21" y2="61.4091" gradientUnits="userSpaceOnUse">
<stop stop-color="#08021E"/>
<stop offset="1" stop-color="#1F0777"/>
</linearGradient>
<clipPath id="clip0_7277_57862">
<rect width="42" height="42" fill="white"/>
</clipPath>
<clipPath id="clip1_7277_57862">
<rect x="5" y="5" width="32.2" height="32.2" rx="16.1" fill="white"/>
</clipPath>
</defs>
</svg>

<svg xmlns="http://www.w3.org/2000/svg" width="42" height="42" fill="none"><g clip-path="url(#a)"><mask id="c" width="42" height="42" x="0" y="0" maskUnits="userSpaceOnUse" style="mask-type:alpha"><circle cx="21" cy="21" r="21" fill="url(#b)" transform="matrix(-1 0 0 1 42 0)"/></mask><g mask="url(#c)"><circle cx="21" cy="21" r="21" fill="#34EDB3" transform="matrix(-1 0 0 1 42 0)"/><circle cx="18.2" cy="18.2" r="18.2" fill="#fff" transform="matrix(-1 0 0 1 39.2 2.8)"/></g><circle cx="16.1" cy="16.1" r="16.1" fill="#0B0B22" transform="matrix(-1 0 0 1 37.1 4.9)"/><g clip-path="url(#d)"><ellipse cx="21.132" cy="21.1" fill="#06061B" rx="16.068" ry="16.1"/><path fill="#231F20" d="M21 5.024c-8.823 0-16 7.2-16 16.054C5 29.93 12.177 37.13 21 37.13c8.824 0 16-7.2 16-16.053 0-8.853-7.176-16.054-16-16.054Zm0 29.457c-7.368 0-13.36-6.01-13.36-13.403 0-7.393 5.992-13.404 13.36-13.404 7.368 0 13.36 6.01 13.36 13.404 0 7.392-5.992 13.403-13.36 13.403Z"/><path fill="#F4B728" d="M21 33.727c6.963 0 12.607-5.664 12.607-12.65C33.607 14.093 27.963 8.43 21 8.43c-6.962 0-12.607 5.663-12.607 12.649 0 6.985 5.645 12.649 12.607 12.649Z"/><path fill="#231F20" d="M15.293 26.07v2.45h4.365v2.685h2.683V28.52h4.366v-3.24h-6.772l6.772-9.216v-2.45h-4.366v-2.678h-2.683v2.678h-4.365v3.247h6.772l-6.772 9.21Z"/></g></g><defs><clipPath id="a"><path fill="#fff" d="M0 0h42v42H0z"/></clipPath><clipPath id="d"><rect width="32.2" height="32.2" x="5" y="5" fill="#fff" rx="16.1"/></clipPath><linearGradient id="b" x1="21" x2="21" y1="0" y2="61.409" gradientUnits="userSpaceOnUse"><stop stop-color="#08021E"/><stop offset="1" stop-color="#1F0777"/></linearGradient></defs></svg>
